X: 33235
T: Pull Down The Blinds
R: waltz
M: 3/4
K: Dmajor
A2|D2F2G2|A4B2|A2d2e2|f4a2|a2g2f2|e2d2e2|f2d2B2|A2F2E2|
D2F2G2|A4B2|A2d2e2|f4g2|a2g2f2|e2d2B2|A2f2e2|d4||
de|f2d2f2|e2c2e2|d2c2B2|A2F2A2|B4c2|d4cd|e2d2B2|A2F2A2|
f2d2f2|e2c2e2|d2c2B2|A2F2A2|B4c2|d4B2|A2f2e2|d4||

